src/static/logos/formkeep.svg

<?xml version="1.0" encoding="UTF-8" standalone="no"?>
<svg width="256px" height="283px" viewBox="0 0 256 283" version="1.1" xmlns="http://www.w3.org/2000/svg" xmlns:xlink="http://www.w3.org/1999/xlink" preserveAspectRatio="xMidYMid">
    <g>
        <path d="M234.666667,54.8392157 L149.333333,5.64705882 C136.031373,-1.88235294 119.717647,-1.88235294 106.415686,5.64705882 L21.0823529,54.8392157 C5.52156863,63.6235294 0,76.6745098 0,91.9843137 L0,190.619608 C0,205.929412 8.03137255,219.984314 21.3333333,227.764706 L106.666667,276.956863 C119.968627,284.486275 136.282353,284.486275 149.584314,276.956863 L234.666667,227.764706 C247.968627,220.235294 256,205.929412 256,190.619608 L256,91.9843137 C256,76.6745098 247.968627,62.6196078 234.666667,54.8392157 L234.666667,54.8392157 Z M177.443137,213.207843 C177.443137,215.717647 175.686275,217.47451 173.427451,217.47451 L82.8235294,217.47451 C80.3137255,217.47451 78.5568627,215.717647 78.5568627,213.207843 L78.5568627,194.635294 C78.5568627,192.376471 79.3098039,190.368627 81.0666667,188.611765 L91.8588235,178.070588 L98.3843137,117.333333 C98.6352941,115.576471 97.8823529,114.070588 96.627451,113.066667 L87.8431373,105.286275 C86.0862745,103.780392 85.3333333,101.521569 85.3333333,99.2627451 L85.3333333,69.6470588 C85.3333333,67.1372549 87.0901961,65.1294118 89.6,65.1294118 L102.901961,65.1294118 C105.160784,65.1294118 107.419608,67.1372549 107.419608,69.3960784 L107.419608,76.172549 L118.462745,76.172549 L118.462745,69.6470588 C118.462745,67.1372549 120.470588,65.1294118 122.980392,65.1294118 L133.772549,65.1294118 C136.031373,65.1294118 137.788235,67.1372549 137.788235,69.3960784 L137.788235,76.172549 L148.831373,76.172549 L148.831373,69.8980392 C148.831373,67.3882353 151.341176,65.1294118 153.85098,65.1294118 L166.901961,65.1294118 C169.160784,65.1294118 171.670588,67.1372549 171.670588,69.3960784 L171.670588,100.015686 C171.670588,102.023529 170.666667,103.780392 169.411765,105.286275 L159.87451,113.066667 C158.619608,114.070588 158.117647,115.576471 158.117647,117.082353 L164.894118,178.070588 L175.686275,189.113725 C176.941176,190.368627 177.443137,191.87451 177.443137,193.631373 L177.443137,213.207843 L177.443137,213.207843 Z M128.25098,149.458824 C121.223529,149.207843 115.701961,155.482353 115.701961,162.258824 L115.701961,188.360784 C115.701961,189.866667 116.956863,191.121569 118.462745,191.121569 L137.286275,191.121569 C138.792157,191.121569 140.298039,189.615686 140.298039,188.109804 L140.298039,162.258824 C140.047059,155.482353 135.278431,149.709804 128.25098,149.458824 L128.25098,149.458824 Z" fill="#524B5A"></path>
    </g>
</svg>

<svg width="256" height="283" xmlns="http://www.w3.org/2000/svg" preserveAspectRatio="xMidYMid"><path d="M234.667 54.84L149.333 5.646a43.595 43.595 0 00-42.917 0L21.082 54.84C5.522 63.624 0 76.675 0 91.984v98.636c0 15.31 8.031 29.364 21.333 37.145l85.334 49.192a43.595 43.595 0 0042.917 0l85.083-49.192C247.969 220.235 256 205.929 256 190.62V91.984c0-15.31-8.031-29.364-21.333-37.145zm-57.224 158.368c0 2.51-1.757 4.267-4.016 4.267H82.824c-2.51 0-4.267-1.757-4.267-4.267v-18.573c0-2.259.753-4.266 2.51-6.023l10.792-10.541 6.525-60.738c.251-1.757-.502-3.262-1.757-4.266l-8.784-7.78c-1.757-1.507-2.51-3.765-2.51-6.024V69.647c0-2.51 1.757-4.518 4.267-4.518h13.302c2.259 0 4.518 2.008 4.518 4.267v6.777h11.043v-6.526a4.499 4.499 0 014.517-4.518h10.793c2.258 0 4.015 2.008 4.015 4.267v6.777h11.043v-6.275c0-2.51 2.51-4.769 5.02-4.769h13.051c2.259 0 4.769 2.008 4.769 4.267v30.62c0 2.008-1.004 3.764-2.26 5.27l-9.536 7.78c-1.255 1.005-1.757 2.51-1.757 4.016l6.776 60.989 10.792 11.043c1.255 1.255 1.757 2.76 1.757 4.517v19.577zm-49.192-63.75c-7.027-.25-12.549 6.024-12.549 12.8v26.103c0 1.506 1.255 2.76 2.76 2.76h18.824c1.506 0 3.012-1.505 3.012-3.011v-25.851c-.25-6.777-5.02-12.55-12.047-12.8z" fill="#524B5A"/></svg>
